X: 1615
T: Annag Nic Iain
R: reel
M: 4/4
K: Aminor
AAAB deed|gdee deeg|AAAB deed|BAGE AcBG|
AAAB deed|gdee deeg|AAAB deed|BAGE A2zc|
BEAA A^ceg|^fea2 gfed|BEAA AGED|^FGGE AAAc|
BEAA A^ceg|^fea2 gfed|BEAA GEDE|DEGE A4||

